www/assets/icons/airplanemode_active.svg

<svg xmlns="http://www.w3.org/2000/svg" width="24" height="24" viewBox="0 0 24 24" fill='currentColor'><path d="M22 16v-2l-8.5-5V3.5c0-.83-.67-1.5-1.5-1.5s-1.5.67-1.5 1.5V9L2 14v2l8.5-2.5V19L8 20.5V22l4-1 4 1v-1.5L13.5 19v-5.5z"/></svg>

<svg width="24" height="24" viewBox="0 0 24 24" xmlns="http://www.w3.org/2000/svg" fill='currentColor'><path d="M22 16V14L13.5 9V3.5C13.5 2.67 12.83 2 12 2C11.17 2 10.5 2.67 10.5 3.5V9L2 14V16L10.5 13.5V19L8 20.5V22L12 21L16 22V20.5L13.5 19V13.5L22 16Z"/></svg>
